src/images/icons/logo.svg

<svg width="128" height="45" viewBox="0 0 128 45" fill="none" xmlns="http://www.w3.org/2000/svg">
<path d="M19.136 6.8V25H13.988V17.902H6.968V25H1.82V6.8H6.968V13.638H13.988V6.8H19.136ZM37.9773 17.98C37.9773 18.0147 37.9513 18.422 37.8993 19.202H27.6553C27.8633 19.93 28.2619 20.4933 28.8513 20.892C29.4579 21.2733 30.2119 21.464 31.1133 21.464C31.7893 21.464 32.3699 21.3687 32.8553 21.178C33.3579 20.9873 33.8606 20.6753 34.3633 20.242L36.9633 22.946C35.5939 24.4713 33.5919 25.234 30.9573 25.234C29.3106 25.234 27.8633 24.922 26.6153 24.298C25.3673 23.674 24.3966 22.8073 23.7033 21.698C23.0273 20.5887 22.6893 19.332 22.6893 17.928C22.6893 16.5413 23.0186 15.302 23.6773 14.21C24.3533 13.1007 25.2806 12.234 26.4593 11.61C27.6379 10.986 28.9639 10.674 30.4373 10.674C31.8413 10.674 33.1153 10.9687 34.2593 11.558C35.4033 12.13 36.3046 12.9707 36.9633 14.08C37.6393 15.172 37.9773 16.472 37.9773 17.98ZM30.4633 14.184C29.7006 14.184 29.0593 14.4007 28.5393 14.834C28.0366 15.2673 27.7159 15.8567 27.5773 16.602H33.3493C33.2106 15.8567 32.8813 15.2673 32.3613 14.834C31.8586 14.4007 31.2259 14.184 30.4633 14.184ZM41.2949 5.708H46.2349V25H41.2949V5.708ZM50.4853 5.708H55.4253V25H50.4853V5.708Z" fill="#111518"/>
<path d="M6.488 41.8H3.888L3.392 43H2.064L4.56 37.4H5.84L8.344 43H6.984L6.488 41.8ZM6.08 40.816L5.192 38.672L4.304 40.816H6.08ZM16.3495 41.944V44.16H15.1495V43H11.1975V44.16H9.9975L10.0055 41.944H10.2295C10.5655 41.9333 10.8028 41.688 10.9415 41.208C11.0802 40.728 11.1655 40.0427 11.1975 39.152L11.2615 37.4H15.5655V41.944H16.3495ZM12.3415 39.272C12.3148 39.9387 12.2588 40.4987 12.1735 40.952C12.0882 41.4 11.9575 41.7307 11.7815 41.944H14.2855V38.456H12.3655L12.3415 39.272ZM21.3099 43.096C20.7393 43.096 20.2219 42.9733 19.7579 42.728C19.2993 42.4773 18.9366 42.1333 18.6699 41.696C18.4086 41.2533 18.2779 40.7547 18.2779 40.2C18.2779 39.6453 18.4086 39.1493 18.6699 38.712C18.9366 38.2693 19.2993 37.9253 19.7579 37.68C20.2219 37.4293 20.7419 37.304 21.3179 37.304C21.8033 37.304 22.2406 37.3893 22.6299 37.56C23.0246 37.7307 23.3553 37.976 23.6219 38.296L22.7899 39.064C22.4113 38.6267 21.9419 38.408 21.3819 38.408C21.0353 38.408 20.7259 38.4853 20.4539 38.64C20.1819 38.7893 19.9686 39 19.8139 39.272C19.6646 39.544 19.5899 39.8533 19.5899 40.2C19.5899 40.5467 19.6646 40.856 19.8139 41.128C19.9686 41.4 20.1819 41.6133 20.4539 41.768C20.7259 41.9173 21.0353 41.992 21.3819 41.992C21.9419 41.992 22.4113 41.7707 22.7899 41.328L23.6219 42.096C23.3553 42.4213 23.0246 42.6693 22.6299 42.84C22.2353 43.0107 21.7953 43.096 21.3099 43.096ZM28.0746 40.744H27.1786V43H25.8906V37.4H27.1786V39.664H28.1066L29.5786 37.4H30.9466L29.1146 40.104L31.0026 43H29.5306L28.0746 40.744ZM33.0498 37.4H34.3378V41.048L37.0098 37.4H38.2258V43H36.9458V39.36L34.2738 43H33.0498V37.4ZM41.0601 37.4H42.3481V41.048L45.0201 37.4H46.2361V43H44.9561V39.36L42.2841 43H41.0601V37.4ZM43.6441 37.04C42.6201 37.04 42.1027 36.632 42.0921 35.816H42.9801C42.9907 36.2053 43.2121 36.4 43.6441 36.4C43.8574 36.4 44.0201 36.352 44.1321 36.256C44.2441 36.1547 44.3027 36.008 44.3081 35.816H45.1961C45.1907 36.216 45.0601 36.52 44.8041 36.728C44.5481 36.936 44.1614 37.04 43.6441 37.04Z" fill="#FF6B09"/>
<path d="M56.568 41.8H53.968L53.472 43H52.144L54.64 37.4H55.92L58.424 43H57.064L56.568 41.8ZM56.16 40.816L55.272 38.672L54.384 40.816H56.16ZM65.7426 37.4V43H64.4466V40.704H61.9026V43H60.6066V37.4H61.9026V39.608H64.4466V37.4H65.7426ZM72.5297 38.456H69.8657L69.8737 43H68.5857V37.4H72.5377L72.5297 38.456ZM79.0646 37.4V43H77.7846V38.456H75.8646L75.8246 39.624C75.7979 40.4187 75.7339 41.064 75.6326 41.56C75.5312 42.0507 75.3606 42.4293 75.1206 42.696C74.8859 42.9573 74.5552 43.088 74.1286 43.088C73.9526 43.088 73.7392 43.0587 73.4886 43L73.5686 41.904C73.6379 41.9253 73.7152 41.936 73.8006 41.936C74.1099 41.936 74.3259 41.7547 74.4486 41.392C74.5712 41.024 74.6486 40.4507 74.6806 39.672L74.7606 37.4H79.0646ZM81.9032 37.4H83.1912V41.048L85.8632 37.4H87.0792V43H85.7992V39.36L83.1272 43H81.9032V37.4ZM89.9135 37.4H91.2015V41.048L93.8735 37.4H95.0895V43H93.8095V39.36L91.1375 43H89.9135V37.4ZM92.4975 37.04C91.4735 37.04 90.9562 36.632 90.9455 35.816H91.8335C91.8442 36.2053 92.0655 36.4 92.4975 36.4C92.7108 36.4 92.8735 36.352 92.9855 36.256C93.0975 36.1547 93.1562 36.008 93.1615 35.816H94.0495C94.0442 36.216 93.9135 36.52 93.6575 36.728C93.4015 36.936 93.0148 37.04 92.4975 37.04ZM100.572 43.096C100.001 43.096 99.4838 42.9733 99.0198 42.728C98.5611 42.4773 98.1985 42.1333 97.9318 41.696C97.6705 41.2533 97.5398 40.7547 97.5398 40.2C97.5398 39.6453 97.6705 39.1493 97.9318 38.712C98.1985 38.2693 98.5611 37.9253 99.0198 37.68C99.4838 37.4293 100.004 37.304 100.58 37.304C101.065 37.304 101.502 37.3893 101.892 37.56C102.286 37.7307 102.617 37.976 102.884 38.296L102.052 39.064C101.673 38.6267 101.204 38.408 100.644 38.408C100.297 38.408 99.9878 38.4853 99.7158 38.64C99.4438 38.7893 99.2305 39 99.0758 39.272C98.9265 39.544 98.8518 39.8533 98.8518 40.2C98.8518 40.5467 98.9265 40.856 99.0758 41.128C99.2305 41.4 99.4438 41.6133 99.7158 41.768C99.9878 41.9173 100.297 41.992 100.644 41.992C101.204 41.992 101.673 41.7707 102.052 41.328L102.884 42.096C102.617 42.4213 102.286 42.6693 101.892 42.84C101.497 43.0107 101.057 43.096 100.572 43.096ZM107.337 40.744H106.441V43H105.153V37.4H106.441V39.664H107.369L108.841 37.4H110.209L108.377 40.104L110.265 43H108.793L107.337 40.744ZM112.312 37.4H113.6V41.048L116.272 37.4H117.488V43H116.208V39.36L113.536 43H112.312V37.4ZM120.322 37.4H121.61V41.048L124.282 37.4H125.498V43H124.218V39.36L121.546 43H120.322V37.4ZM122.906 37.04C121.882 37.04 121.365 36.632 121.354 35.816H122.242C122.253 36.2053 122.474 36.4 122.906 36.4C123.119 36.4 123.282 36.352 123.394 36.256C123.506 36.1547 123.565 36.008 123.57 35.816H124.458C124.453 36.216 124.322 36.52 124.066 36.728C123.81 36.936 123.423 37.04 122.906 37.04Z" fill="#111518"/>
<path d="M104.432 21.022V25H89.82V6.8H104.094V10.778H94.916V13.846H103.002V17.694H94.916V21.022H104.432ZM125.645 6.8V25H121.407L113.373 15.302V25H108.329V6.8H112.567L120.601 16.498V6.8H125.645Z" fill="#111518"/>
<path d="M82.5392 15.5556C82.2734 14.9601 81.9067 14.3738 81.3705 13.6965C80.0184 11.9965 79.6059 8.20557 79.6013 8.1692C79.583 7.98739 79.4547 7.83739 79.2851 7.78284C79.1109 7.7283 78.923 7.7783 78.7992 7.91466C77.1859 9.7192 77.8642 12.5056 78.2309 13.6192C78.3317 13.9238 78.4417 14.2828 78.5196 14.6465C79.1154 17.5874 77.965 18.9192 77.6946 19.1874C77.4334 19.2601 77.2546 19.2238 77.0896 19.0465C76.5213 18.4238 76.3334 16.3828 76.5992 13.7238C76.6542 13.1828 76.6404 12.6965 76.5625 12.2419C76.0019 8.97361 73.9463 6.87716 73.4229 6.14193C71.9838 4.01466 71.8371 0.47375 71.8325 0.441932C71.8279 0.27375 71.7317 0.12375 71.5804 0.0510227C71.4338 -0.0217046 71.255 -0.0126137 71.1175 0.0828409C68.7159 1.71466 68.9221 5.64648 69.2567 7.84193C69.3346 8.35102 69.4859 8.86921 69.7471 9.52375C70.6775 11.8647 69.5638 14.8874 69.5546 14.9147C69.5454 14.9419 69.5363 14.9647 69.5317 14.9919C69.3896 15.7374 69.1513 16.1828 68.8854 16.1828C68.8579 16.1828 68.8304 16.1783 68.7984 16.1692C68.4729 16.101 68.3034 15.7556 68.2988 15.4556C68.2804 11.5783 64.3892 10.2738 64.3479 10.2601C64.1738 10.2056 63.9813 10.2556 63.8621 10.3965C63.7384 10.5374 63.7154 10.7328 63.7979 10.8965C63.8438 10.9919 63.9904 11.4101 63.8896 12.8874C63.8025 14.2147 63.5596 15.5283 63.17 16.7874C62.2442 19.8056 62.3909 22.6647 62.4 22.801C63.112 30.5423 74.2451 31.8987 80.8525 27.5374C81.5767 27.0601 82.1679 26.5147 82.6034 25.9147C85.0417 22.551 83.6072 17.9828 82.5392 15.5556ZM65.6038 22.951C65.6176 23.201 65.4251 23.4147 65.173 23.4283H65.1455C64.9026 23.4283 64.7009 23.2419 64.6872 23.001C64.6459 22.3374 64.6551 21.6419 64.7055 20.8874C64.7238 20.6374 64.9438 20.451 65.1959 20.4646C65.448 20.4828 65.6405 20.701 65.6222 20.951C65.5717 21.6692 65.5626 22.3238 65.6038 22.951ZM65.8284 18.9238C65.8009 19.1556 65.6038 19.3238 65.3746 19.3238C65.3563 19.3238 65.3379 19.3238 65.315 19.3192C65.0675 19.2874 64.8888 19.0647 64.9163 18.8147L65.1363 17.0601C65.1684 16.8147 65.3929 16.6374 65.6496 16.6647C65.9017 16.6965 66.0804 16.9237 66.0484 17.1737L65.8284 18.9238Z" fill="#FF6B09"/>
<path d="M79.4384 6.21861C79.1884 6.1802 79.017 5.94851 79.0555 5.70061C79.0841 5.51592 79.2497 4.57047 79.6991 4.09506C79.8721 3.91174 80.1617 3.9022 80.347 4.07442C80.5316 4.24597 80.541 4.53365 80.3678 4.71697C80.1776 4.91829 80.0156 5.49442 79.9614 5.83915C79.9228 6.08442 79.6921 6.25656 79.4384 6.21861Z" fill="#FF6B09"/>
<path d="M62.7294 8.48269C62.6417 8.14464 62.4237 7.58714 62.2145 7.40514C62.024 7.23955 62.005 6.95237 62.1719 6.76373C62.3384 6.57464 62.6278 6.55532 62.8187 6.72155C63.3126 7.151 63.5706 8.07587 63.6174 8.25673C63.6801 8.49978 63.5324 8.747 63.2875 8.8096C63.0373 8.872 62.7918 8.72169 62.7294 8.48269Z" fill="#FF6B09"/>
</svg>

<svg width="128" height="45" fill="none" xmlns="http://www.w3.org/2000/svg"><path d="M19.136 6.8V25h-5.148v-7.098h-7.02V25H1.82V6.8h5.148v6.838h7.02V6.8h5.148zm18.841 11.18c0 .035-.026.442-.078 1.222H27.655c.208.728.607 1.291 1.196 1.69.607.381 1.36.572 2.262.572.676 0 1.257-.095 1.742-.286.503-.19 1.006-.503 1.508-.936l2.6 2.704c-1.37 1.525-3.371 2.288-6.006 2.288-1.646 0-3.094-.312-4.342-.936-1.248-.624-2.218-1.49-2.912-2.6-.676-1.11-1.014-2.366-1.014-3.77 0-1.387.33-2.626.988-3.718a7.057 7.057 0 0 1 2.782-2.6c1.179-.624 2.505-.936 3.978-.936 1.404 0 2.678.295 3.822.884a6.431 6.431 0 0 1 2.704 2.522c.676 1.092 1.014 2.392 1.014 3.9zm-7.514-3.796c-.762 0-1.404.217-1.924.65-.502.433-.823 1.023-.962 1.768h5.772c-.138-.745-.468-1.335-.988-1.768-.502-.433-1.135-.65-1.898-.65zm10.832-8.476h4.94V25h-4.94V5.708zm9.19 0h4.94V25h-4.94V5.708z" fill="#111518"/><path d="M6.488 41.8h-2.6L3.392 43H2.064l2.496-5.6h1.28L8.344 43h-1.36l-.496-1.2zm-.408-.984l-.888-2.144-.888 2.144H6.08zm10.27 1.128v2.216h-1.2V43h-3.953v1.16h-1.2l.008-2.216h.224c.337-.01.574-.256.713-.736.138-.48.223-1.165.255-2.056l.065-1.752h4.303v4.544h.784zm-4.009-2.672a11.86 11.86 0 0 1-.167 1.68c-.086.448-.216.779-.393.992h2.505v-3.488h-1.92l-.024.816zm8.969 3.824c-.57 0-1.088-.123-1.552-.368a2.853 2.853 0 0 1-1.088-1.032 2.887 2.887 0 0 1-.392-1.496c0-.555.13-1.05.392-1.488.267-.443.63-.787 1.088-1.032.464-.25.984-.376 1.56-.376.485 0 .923.085 1.312.256.395.17.725.416.992.736l-.832.768c-.379-.437-.848-.656-1.408-.656-.347 0-.656.077-.928.232a1.62 1.62 0 0 0-.64.632c-.15.272-.224.581-.224.928 0 .347.075.656.224.928.155.272.368.485.64.64.272.15.581.224.928.224.56 0 1.03-.221 1.408-.664l.832.768a2.593 2.593 0 0 1-.992.744c-.395.17-.835.256-1.32.256zm6.765-2.352h-.896V43H25.89v-5.6h1.288v2.264h.928l1.472-2.264h1.368l-1.832 2.704L31.003 43H29.53l-1.456-2.256zM33.05 37.4h1.288v3.648L37.01 37.4h1.216V43h-1.28v-3.64L34.274 43H33.05v-5.6zm8.01 0h1.288v3.648L45.02 37.4h1.216V43h-1.28v-3.64L42.284 43H41.06v-5.6zm2.584-.36c-1.024 0-1.541-.408-1.552-1.224h.888c.01.39.232.584.664.584.213 0 .376-.048.488-.144.112-.101.17-.248.176-.44h.888c-.005.4-.136.704-.392.912-.256.208-.643.312-1.16.312z" fill="#FF6B09"/><path d="M56.568 41.8h-2.6l-.496 1.2h-1.328l2.496-5.6h1.28l2.504 5.6h-1.36l-.496-1.2zm-.408-.984l-.888-2.144-.888 2.144h1.776zm9.583-3.416V43h-1.296v-2.296h-2.544V43h-1.296v-5.6h1.296v2.208h2.544V37.4h1.296zm6.787 1.056h-2.664L69.874 43h-1.288v-5.6h3.952l-.008 1.056zm6.535-1.056V43h-1.28v-4.544h-1.92l-.04 1.168c-.027.795-.091 1.44-.192 1.936-.102.49-.272.87-.512 1.136-.235.261-.566.392-.992.392-.176 0-.39-.03-.64-.088l.08-1.096c.069.021.146.032.232.032.309 0 .525-.181.648-.544.122-.368.2-.941.232-1.72l.08-2.272h4.304zm2.838 0h1.288v3.648l2.672-3.648h1.216V43H85.8v-3.64L83.127 43h-1.224v-5.6zm8.01 0h1.288v3.648l2.673-3.648h1.216V43h-1.28v-3.64L91.138 43h-1.225v-5.6zm2.585-.36c-1.025 0-1.542-.408-1.553-1.224h.889c.01.39.231.584.663.584.214 0 .377-.048.489-.144.111-.101.17-.248.175-.44h.888c-.005.4-.136.704-.392.912-.255.208-.642.312-1.16.312zm8.074 6.056a3.269 3.269 0 0 1-1.552-.368 2.852 2.852 0 0 1-1.088-1.032 2.887 2.887 0 0 1-.392-1.496c0-.555.13-1.05.392-1.488.266-.443.63-.787 1.088-1.032a3.23 3.23 0 0 1 1.56-.376c.485 0 .922.085 1.312.256.394.17.725.416.992.736l-.832.768c-.379-.437-.848-.656-1.408-.656-.347 0-.656.077-.928.232a1.62 1.62 0 0 0-.64.632c-.15.272-.224.581-.224.928 0 .347.075.656.224.928.155.272.368.485.64.64.272.15.581.224.928.224.56 0 1.029-.221 1.408-.664l.832.768a2.602 2.602 0 0 1-.992.744c-.395.17-.835.256-1.32.256zm6.765-2.352h-.896V43h-1.288v-5.6h1.288v2.264h.928l1.472-2.264h1.368l-1.832 2.704L110.265 43h-1.472l-1.456-2.256zm4.975-3.344h1.288v3.648l2.672-3.648h1.216V43h-1.28v-3.64L113.536 43h-1.224v-5.6zm8.01 0h1.288v3.648l2.672-3.648h1.216V43h-1.28v-3.64L121.546 43h-1.224v-5.6zm2.584-.36c-1.024 0-1.541-.408-1.552-1.224h.888c.011.39.232.584.664.584.213 0 .376-.048.488-.144.112-.101.171-.248.176-.44h.888c-.005.4-.136.704-.392.912-.256.208-.643.312-1.16.312zM104.432 21.022V25H89.82V6.8h14.274v3.978h-9.178v3.068h8.086v3.848h-8.086v3.328h9.516zM125.645 6.8V25h-4.238l-8.034-9.698V25h-5.044V6.8h4.238l8.034 9.698V6.8h5.044z" fill="#111518"/><path d="M82.54 15.556c-.267-.596-.633-1.182-1.17-1.86-1.352-1.7-1.764-5.49-1.769-5.527a.457.457 0 0 0-.316-.386.465.465 0 0 0-.486.132c-1.613 1.804-.935 4.59-.568 5.704.1.305.21.664.289 1.027.595 2.941-.555 4.273-.825 4.541-.262.073-.44.037-.605-.14-.569-.623-.757-2.664-.49-5.323a5.441 5.441 0 0 0-.037-1.482c-.561-3.268-2.617-5.365-3.14-6.1-1.44-2.127-1.586-5.668-1.59-5.7a.458.458 0 0 0-.715-.36c-2.402 1.633-2.196 5.564-1.861 7.76.078.509.229 1.027.49 1.682.93 2.34-.183 5.363-.192 5.39-.01.028-.019.05-.023.078-.142.745-.38 1.19-.647 1.19a.312.312 0 0 1-.087-.013c-.325-.068-.495-.413-.5-.713-.018-3.878-3.909-5.182-3.95-5.196a.456.456 0 0 0-.486.136.447.447 0 0 0-.064.5c.046.096.192.514.092 1.991a16.978 16.978 0 0 1-.72 3.9c-.926 3.019-.78 5.878-.77 6.014.712 7.741 11.845 9.098 18.453 4.736.724-.477 1.315-1.022 1.75-1.622 2.439-3.364 1.004-7.932-.064-10.36zM65.603 22.95a.454.454 0 0 1-.431.477h-.028a.456.456 0 0 1-.458-.427c-.041-.664-.032-1.36.019-2.114a.463.463 0 0 1 .49-.422.458.458 0 0 1 .426.486c-.05.718-.06 1.373-.018 2zm.224-4.027a.455.455 0 0 1-.453.4c-.019 0-.037 0-.06-.005a.458.458 0 0 1-.399-.504l.22-1.755a.462.462 0 0 1 .514-.395c.252.032.43.259.398.509l-.22 1.75zM79.438 6.219a.455.455 0 0 1-.383-.518c.03-.185.195-1.13.644-1.606a.46.46 0 0 1 .648-.02c.185.171.194.459.02.642-.19.201-.351.777-.406 1.122a.458.458 0 0 1-.523.38zM62.73 8.483c-.088-.338-.306-.896-.515-1.078a.452.452 0 0 1-.043-.641.46.46 0 0 1 .647-.042c.494.429.752 1.354.798 1.535a.454.454 0 0 1-.33.553.46.46 0 0 1-.558-.327z" fill="#FF6B09"/></svg>
